public/svg/flour.svg

<svg width="75" height="94" viewBox="0 0 75 94" fill="none" xmlns="http://www.w3.org/2000/svg">
<path d="M29.5754 83.987C31.7241 88.2021 35.1372 91.5742 39.4924 88.7228C45.203 85.0118 42.7568 78.747 38.3354 75.0939C45.5336 74.0773 54.6986 69.8291 49.9054 61.7956C47.1203 57.1011 40.5337 60.6302 36.0132 64.6469C38.4925 58.5309 40.3684 49.5221 33.0133 49.9023C29.5588 50.0841 28.377 55.6878 27.9638 60.8038C25.0961 54.8199 20.1128 49.0923 14.427 54.7704C11.0469 58.1507 13.2866 62.2088 16.7575 65.5148C12.394 64.9363 8.02224 65.49 6.83219 69.2092C3.93144 78.1767 13.8733 79.3338 21.4847 78.5569C16.2451 83.2101 10.8651 89.789 19.2781 93.4338C24.9639 95.8968 28.1704 89.8717 29.5754 83.987ZM33.7075 75.16C34.9932 75.7607 36.1519 76.6024 37.1206 77.6395C40.6908 80.3945 39.7183 83.0806 34.2033 85.6978C32.0133 83.9044 30.972 80.119 30.5671 77.1436C31.7025 76.6843 32.7033 75.9451 33.4761 74.9947C33.5416 75.0573 33.6136 75.1128 33.6909 75.16H33.7075ZM31.6497 57.5887C31.7359 57.1803 31.8463 56.7773 31.9802 56.382C32.1909 56.6047 32.477 56.7408 32.7827 56.7638C33.0884 56.7867 33.3916 56.6948 33.6331 56.506H33.6992H33.7984L34.1703 56.5886C34.6579 56.7126 35.1124 56.8862 35.6082 56.9854H35.7818C35.7818 57.0928 35.7818 57.1837 35.7818 57.2994C36.0297 60.7955 33.8232 64.9445 32.0464 67.9612C31.5595 67.7216 31.0424 67.5492 30.5092 67.4488C30.5607 64.1305 30.9372 60.8253 31.6332 57.5804L31.6497 57.5887ZM24.2119 67.4653C21.3966 65.8352 18.9999 63.5714 17.2121 60.8534L22.8235 57.9937C23.9617 59.3473 24.9303 60.835 25.7077 62.4237C26.5463 64.0497 27.1793 65.7738 27.5919 67.5562C27.01 67.7016 26.4529 67.9328 25.9391 68.2422C25.468 67.9695 24.8813 67.7133 24.2036 67.4571L24.2119 67.4653ZM33.9802 69.4572C36.5585 66.8173 39.6841 64.7748 43.137 63.4733L44.5667 63.0601C47.63 68.3882 46.8531 71.4435 42.2362 72.226C39.8461 73.0413 37.2947 73.2681 34.7984 72.8871C34.9581 72.4397 35.0008 71.9589 34.9223 71.4904C34.8053 70.7336 34.4757 70.0256 33.9719 69.4489L33.9802 69.4572ZM32.4348 73.1764C31.7142 73.9714 30.7588 74.5157 29.7076 74.7302C29.4625 74.5594 29.1803 74.4494 28.8843 74.4092C28.5883 74.3689 28.2869 74.3997 28.0052 74.4988C27.2531 74.1021 27.2448 73.0524 27.2862 72.3169C27.3113 72.1242 27.3841 71.9408 27.4982 71.7835C27.6122 71.6261 27.7637 71.4998 27.939 71.416C29.3026 70.5977 32.1538 71.1102 32.4183 73.1764H32.4348ZM13.1378 68.7712C16.8682 68.4181 20.6267 69.027 24.0548 70.5399C23.7943 71.2876 23.6971 72.0825 23.7698 72.8709C23.8425 73.6593 24.0834 74.423 24.4763 75.1104C23.7408 75.3005 22.997 75.4658 22.2367 75.6229C20.4672 75.9633 18.6664 76.1129 16.865 76.0691C12.4298 76.6201 11.1874 74.1875 13.1378 68.7712ZM18.6335 85.7805C19.4786 84.5773 20.4512 83.4688 21.5343 82.4745C23.2726 80.8254 25.1227 79.2983 27.0713 77.904C26.9751 81.4652 26.0798 84.9592 24.4515 88.1278C22.8923 91.3125 20.9503 90.5328 18.6252 85.7888L18.6335 85.7805Z" fill="#C1CEBE"/>
<path d="M54.0083 33.1584C53.2646 36.2991 53.5455 39.5555 57.0826 40.01C61.6941 40.6051 63.1899 36.266 62.504 32.4145C66.6939 35.0676 73.3384 36.9107 74.4127 30.6293C75.0408 26.9597 70.0575 25.8769 65.9336 25.9679C69.9005 23.8686 74.8838 20.0336 70.8922 16.9756C69.0162 15.5375 65.9336 17.9509 63.4544 20.4055C64.6113 16.0334 64.5535 10.8512 59.0826 11.3141C55.8347 11.5703 55.1819 14.6945 55.5372 17.9261C53.5042 15.6615 50.9836 14.0167 48.744 15.4466C43.2648 18.8435 47.9176 23.8355 52.215 26.8026C47.4383 26.9018 41.7359 27.9432 44.4962 33.5551C46.3474 37.3074 50.6613 35.6048 54.0083 33.1584ZM60.0495 30.3648C60.4509 31.2499 60.6782 32.204 60.7189 33.1749C61.347 36.1999 59.6528 37.1669 55.6364 36.0759C55.2893 34.175 56.4628 31.7451 57.5289 30.0177C58.3279 30.2824 59.1811 30.3393 60.0082 30.183C60.0154 30.2449 60.0292 30.3059 60.0495 30.3648ZM66.7435 20.3229C66.968 20.1494 67.2026 19.9893 67.446 19.8435C67.458 20.0471 67.5448 20.239 67.6897 20.3824C67.8346 20.5258 68.0274 20.6106 68.2311 20.6204H68.2724L68.4294 20.8271C68.6278 21.0998 68.7848 21.3974 68.9997 21.6536L69.0823 21.7362L68.9583 21.9098C67.5452 23.8355 64.5618 25.0174 62.3056 25.8025C62.1565 25.4611 61.9619 25.1414 61.7271 24.8521C63.2511 23.1879 64.934 21.6765 66.7518 20.3394L66.7435 20.3229ZM58.4793 22.166C57.7354 20.0808 57.4864 17.8512 57.752 15.6532L61.9337 16.645C61.9278 17.8492 61.7752 19.0482 61.4792 20.2154C61.2177 21.4413 60.8041 22.6296 60.2478 23.7529C59.8869 23.5798 59.5027 23.4601 59.1074 23.3975C58.9503 23.0173 58.7603 22.6205 58.5206 22.1908L58.4793 22.166ZM62.6693 27.5217C65.1876 27.2857 67.7271 27.6074 70.1071 28.4639L71.0327 28.8854C70.2668 33.0069 68.5121 34.2521 65.7683 32.6212C64.1731 31.9816 62.7556 30.9666 61.6362 29.6623C61.9183 29.5014 62.1544 29.271 62.3222 28.9929C62.5853 28.5566 62.7226 28.056 62.7188 27.5465L62.6693 27.5217ZM60.19 28.7697C59.4632 28.8655 58.7248 28.7266 58.0826 28.373C58.0306 28.1751 57.9323 27.9925 57.7958 27.8401C57.6593 27.6878 57.4885 27.5702 57.2975 27.4969C57.0826 26.9597 57.5372 26.4142 57.8843 26.0505C57.9835 25.9638 58.102 25.902 58.23 25.8703C58.3579 25.8387 58.4916 25.8381 58.6198 25.8687C59.785 26.0753 61.0412 27.6043 60.2644 28.7945L60.19 28.7697ZM52.1902 17.9674C54.2904 19.444 55.9753 21.4364 57.0826 23.7529C56.6166 24.0262 56.2145 24.3963 55.9037 24.8383C55.5929 25.2803 55.3806 25.7839 55.281 26.315C54.8182 26.0836 54.3554 25.8439 53.8926 25.5959C52.8213 24.9889 51.8184 24.2684 50.901 23.4471C48.3721 21.7555 48.8019 19.9289 52.1902 17.9674ZM47.5292 29.2325C48.5042 28.9734 49.5046 28.821 50.5126 28.778C52.1459 28.6899 53.7833 28.7148 55.4133 28.8523C53.7882 30.6518 51.7803 32.064 49.5374 32.9848C47.306 33.9931 46.6366 32.7479 47.5292 29.2491V29.2325Z" fill="#C1CEBE"/>
<path d="M31.9898 2.61854C29.6593 -0.761829 25.3371 -0.604795 22.2049 1.58542C19.0728 3.77563 17.5935 8.04035 17.7422 11.8174C14.1308 8.46186 10.1639 5.9741 4.89961 7.56923C0.709645 8.87509 -0.571312 13.239 0.222055 17.1401C1.31293 22.5288 6.47808 25.9009 11.1474 27.9754C14.0917 29.1756 17.1727 30.0084 20.3207 30.4549C21.8413 30.7194 24.3454 31.3392 25.8164 30.4549C25.9776 30.473 26.1403 30.4386 26.2803 30.3567C26.4203 30.2747 26.5301 30.1497 26.5932 30.0003C28.9651 24.7851 32.3121 19.9254 33.3534 14.206C34.0062 10.5281 34.1633 5.76748 31.9898 2.61854ZM31.9898 6.94936C33.4608 15.4044 28.0477 22.0164 25.2214 29.4713C25.2174 29.5181 25.2174 29.5651 25.2214 29.6119C23.8495 29.9673 21.676 29.2482 20.4777 29.0002C18.2608 28.606 16.0696 28.0788 13.9159 27.4217C9.37883 25.934 4.47814 23.1487 2.34596 18.6939C0.693116 15.2474 1.23856 10.8174 4.82523 8.97428C9.916 6.39562 15.0068 10.5281 18.1802 14.1564C18.2843 14.2643 18.4202 14.336 18.568 14.3611C18.7157 14.3862 18.8676 14.3634 19.0015 14.296C19.1354 14.2286 19.2442 14.1201 19.312 13.9865C19.3799 13.8528 19.4032 13.7009 19.3786 13.553C18.7257 9.33792 20.205 4.41206 24.0313 2.13093C28.2213 -0.373348 31.2956 3.08963 31.9732 6.94936H31.9898Z" fill="#C1CEBE"/>
</svg>

<svg xmlns="http://www.w3.org/2000/svg" width="75" height="94" fill="#c1cebe" xmlns:v="https://vecta.io/nano"><path d="M29.575 83.987c2.15 4.215 5.562 7.587 9.917 4.736 5.7-3.7 3.264-9.976-1.157-13.63 7.198-1.017 16.363-5.265 11.57-13.298-2.785-4.694-9.372-1.165-13.892 2.85 2.48-6.116 4.355-15.125-3-14.745-3.454.182-4.636 5.786-5.05 10.902-2.868-5.984-7.85-11.7-13.537-6.033-3.38 3.38-1.14 7.438 2.33 10.744-4.363-.578-8.735-.025-9.925 3.694-2.9 8.968 7.04 10.125 14.653 9.348-5.24 4.653-10.62 11.232-2.207 14.877 5.686 2.463 8.892-3.562 10.297-9.447zm4.132-8.827a11.1 11.1 0 0 1 3.413 2.48c3.57 2.755 2.598 5.44-2.917 8.058-2.2-1.793-3.23-5.58-3.636-8.554 1.135-.46 2.136-1.2 2.9-2.15a1.23 1.23 0 0 0 .215.165h.017zM31.65 57.6a10.56 10.56 0 0 1 .331-1.207 1.23 1.23 0 0 0 1.653.124h.165l.372.083c.488.124.942.298 1.438.397h.174v.314c.248 3.496-1.96 7.645-3.735 10.662-.487-.24-1.004-.412-1.537-.512.052-3.318.428-6.624 1.124-9.868l.017.008zm-7.438 9.877a20.94 20.94 0 0 1-7-6.612l5.6-2.86a21.71 21.71 0 0 1 2.884 4.43 22.04 22.04 0 0 1 1.884 5.133c-.582.145-1.14.377-1.653.686-.47-.273-1.058-.53-1.735-.785l.008.008zm9.768 1.992a25.25 25.25 0 0 1 9.157-5.984l1.43-.413c3.063 5.328 2.286 8.383-2.33 9.166a15.7 15.7 0 0 1-7.438.661 2.79 2.79 0 0 0 .124-1.397 4.04 4.04 0 0 0-.95-2.041l.008.008zm-1.545 3.72a5.04 5.04 0 0 1-2.727 1.554c-.245-.17-.527-.28-.823-.32s-.597-.01-.88.1c-.752-.397-.76-1.446-.72-2.182a1.16 1.16 0 0 1 .212-.533 1.17 1.17 0 0 1 .44-.368c1.364-.818 4.215-.306 4.48 1.76h.017zm-19.297-4.41a21.92 21.92 0 0 1 10.917 1.769 5.54 5.54 0 0 0 .421 4.57c-.735.2-1.48.355-2.24.513-1.77.34-3.57.5-5.372.446-4.435.55-5.678-1.882-3.727-7.298zm5.496 17a20.42 20.42 0 0 1 2.901-3.306 52.07 52.07 0 0 1 5.537-4.571 23.78 23.78 0 0 1-2.62 10.224c-1.56 3.185-3.5 2.405-5.826-2.34l.008-.008zm35.374-52.622c-.744 3.14-.463 6.397 3.074 6.852 4.6.595 6.107-3.744 5.42-7.596 4.2 2.653 10.834 4.496 11.9-1.785.628-3.67-4.355-4.752-8.48-4.66 3.967-2.1 8.95-5.934 4.96-8.992-1.876-1.438-4.96.975-7.438 3.43 1.157-4.372 1.1-9.554-4.372-9.1-3.248.256-3.9 3.38-3.545 6.612-2.033-2.265-4.554-3.9-6.793-2.48-5.48 3.397-.826 8.4 3.47 11.356-4.777.1-10.48 1.14-7.72 6.753 1.85 3.752 6.165 2.05 9.512-.397zm6.04-2.794a7.57 7.57 0 0 1 .669 2.81c.628 3.025-1.066 3.992-5.082 2.9-.347-1.9.826-4.33 1.892-6.058a4.95 4.95 0 0 0 2.48.165.87.87 0 0 0 .04.182zm6.694-10.042c.225-.174.46-.334.703-.48.012.204.1.396.244.54s.338.228.54.238h.04l.157.207c.198.273.355.57.57.826l.083.083-.124.174c-1.413 1.926-4.396 3.108-6.653 3.893-.15-.34-.344-.66-.578-.95a34.66 34.66 0 0 1 5.025-4.513l-.008-.017zm-8.264 1.843c-.744-2.085-.993-4.315-.727-6.513l4.182.992a14.82 14.82 0 0 1-.455 3.57 15.04 15.04 0 0 1-1.231 3.538 4.13 4.13 0 0 0-1.14-.355 11.39 11.39 0 0 0-.587-1.207l-.04-.025zm4.2 5.356a17.22 17.22 0 0 1 7.438.942l.926.422c-.766 4.122-2.52 5.367-5.264 3.736-1.595-.64-3.013-1.655-4.132-2.96a1.9 1.9 0 0 0 .686-.669 2.76 2.76 0 0 0 .397-1.446l-.05-.025zM60.2 28.77a3.44 3.44 0 0 1-2.107-.397 1.29 1.29 0 0 0-.785-.876c-.215-.537.24-1.083.587-1.446a.83.83 0 0 1 .346-.18.87.87 0 0 1 .4-.002c1.165.207 2.42 1.736 1.645 2.926l-.074-.025zm-8-10.802a14.96 14.96 0 0 1 4.892 5.785 3.79 3.79 0 0 0-1.18 1.085 3.78 3.78 0 0 0-.623 1.477l-1.388-.72a17.19 17.19 0 0 1-2.992-2.149c-2.53-1.692-2.1-3.518 1.3-5.48zm-4.66 11.265a13.93 13.93 0 0 1 2.983-.455 35.62 35.62 0 0 1 4.9.074 16.21 16.21 0 0 1-5.876 4.133c-2.23 1.008-2.9-.237-2.008-3.736v-.017zM32 2.62c-2.33-3.38-6.653-3.223-9.785-1.033s-4.6 6.455-4.463 10.232C14.13 8.462 10.164 5.974 4.9 7.57.7 8.875-.57 13.24.222 17.14c1.1 5.4 6.256 8.76 10.925 10.835a38.7 38.7 0 0 0 9.173 2.479c1.52.265 4.025.884 5.496 0a.75.75 0 0 0 .777-.455c2.372-5.215 5.72-10.075 6.76-15.794.653-3.678.8-8.44-1.364-11.587zm0 4.33c1.47 8.455-3.942 15.067-6.768 22.522a.82.82 0 0 0 0 .14c-1.372.355-3.545-.364-4.744-.612-2.217-.394-4.408-.92-6.562-1.578-4.537-1.488-9.438-4.273-11.57-8.728-1.653-3.446-1.107-7.876 2.48-9.72 5.1-2.58 10.182 1.554 13.355 5.182a.7.7 0 0 0 1.132-.169c.068-.134.1-.286.067-.433-.653-4.215.826-9.14 4.653-11.422 4.2-2.504 7.264.96 7.942 4.818H32z"/></svg>
